packages/IcoMoon/src/Grin2Icon/index.svg

<svg version="1.1" xmlns="http://www.w3.org/2000/svg" width="16" height="16" viewBox="0 0 16 16">
<path d="M8 0c-4.418 0-8 3.582-8 8s3.582 8 8 8c4.418 0 8-3.582 8-8s-3.582-8-8-8zM11 3.688c0.999 0 1.813 0.813 1.813 1.813 0 0.1-0.009 0.201-0.025 0.302-0.025 0.151-0.156 0.261-0.308 0.261s-0.283-0.11-0.308-0.261c-0.096-0.573-0.589-0.833-1.171-0.833s-1.074 0.26-1.171 0.833c-0.025 0.151-0.156 0.261-0.308 0.261-0 0 0 0-0 0-0.153 0-0.283-0.11-0.308-0.261-0.017-0.101-0.025-0.202-0.025-0.302 0-0.999 0.813-1.813 1.813-1.813zM5 3.688c0.999 0 1.813 0.813 1.813 1.813 0 0.1-0.009 0.201-0.025 0.302-0.025 0.151-0.156 0.261-0.308 0.261s-0.283-0.11-0.308-0.261c-0.096-0.573-0.589-0.833-1.171-0.833s-1.074 0.26-1.171 0.833c-0.025 0.151-0.156 0.261-0.308 0.261 0 0 0 0 0 0-0.153 0-0.283-0.11-0.308-0.261-0.017-0.101-0.025-0.202-0.025-0.302 0-0.999 0.813-1.813 1.813-1.813zM3 9h3v3.873c-1.72-0.447-3-2.018-3-3.873zM7 13v-4h2v4h-2zM10 12.873v-3.873h3c0 1.855-1.28 3.426-3 3.873z"></path>
</svg>

<svg xmlns="http://www.w3.org/2000/svg" viewBox="0 0 16 16">
  <path d="M8 0a8 8 0 100 16A8 8 0 008 0zm3 3.688a1.815 1.815 0 011.788 2.115.312.312 0 01-.616 0c-.096-.573-.589-.833-1.171-.833s-1.074.26-1.171.833a.312.312 0 01-.616 0 1.815 1.815 0 011.788-2.115zm-6 0a1.815 1.815 0 011.788 2.115.312.312 0 01-.616 0c-.096-.573-.589-.833-1.171-.833s-1.074.26-1.171.833a.312.312 0 01-.616 0 1.815 1.815 0 011.788-2.115zM3 9h3v3.873A4.017 4.017 0 013 9zm4 4V9h2v4H7zm3-.127V9h3a4.017 4.017 0 01-3 3.873z"/>
</svg>
